Numix-Circle/48x48/apps/nvclock.svg

<?xml version="1.0" encoding="UTF-8" standalone="no"?>
<svg
   xmlns:dc="http://purl.org/dc/elements/1.1/"
   xmlns:cc="http://creativecommons.org/ns#"
   xmlns:rdf="http://www.w3.org/1999/02/22-rdf-syntax-ns#"
   xmlns:svg="http://www.w3.org/2000/svg"
   xmlns="http://www.w3.org/2000/svg"
   xmlns:xlink="http://www.w3.org/1999/xlink"
   xmlns:sodipodi="http://sodipodi.sourceforge.net/DTD/sodipodi-0.dtd"
   xmlns:inkscape="http://www.inkscape.org/namespaces/inkscape"
   viewBox="0 0 48 48"
   id="svg2"
   version="1.1"
   inkscape:version="0.48.4 r9939"
   width="100%"
   height="100%"
   sodipodi:docname="nvclock.svg">
  <metadata
     id="metadata61">
    <rdf:RDF>
      <cc:Work
         rdf:about="">
        <dc:format>image/svg+xml</dc:format>
        <dc:type
           rdf:resource="http://purl.org/dc/dcmitype/StillImage" />
      </cc:Work>
    </rdf:RDF>
  </metadata>
  <sodipodi:namedview
     pagecolor="#ffffff"
     bordercolor="#666666"
     borderopacity="1"
     objecttolerance="10"
     gridtolerance="10"
     guidetolerance="10"
     inkscape:pageopacity="0"
     inkscape:pageshadow="2"
     inkscape:window-width="640"
     inkscape:window-height="480"
     id="namedview59"
     showgrid="false"
     inkscape:zoom="2.4583333"
     inkscape:cx="-39.257775"
     inkscape:cy="-1.3534682"
     inkscape:window-x="0"
     inkscape:window-y="0"
     inkscape:window-maximized="0"
     inkscape:current-layer="svg2" />
  <defs
     id="defs4">
    <linearGradient
       id="linearGradient3764"
       x1="1"
       x2="47"
       gradientUnits="userSpaceOnUse"
       gradientTransform="matrix(0,-1,1,0,-1.5e-6,47.999998)">
      <stop
         stop-color="#94c341"
         stop-opacity="1"
         id="stop7" />
      <stop
         offset="1"
         stop-color="#9dc851"
         stop-opacity="1"
         id="stop9" />
    </linearGradient>
    <clipPath
       id="clipPath-853337022">
      <g
         transform="translate(0,-1004.3622)"
         id="g12">
        <path
           d="m -24 13 c 0 1.105 -0.672 2 -1.5 2 -0.828 0 -1.5 -0.895 -1.5 -2 0 -1.105 0.672 -2 1.5 -2 0.828 0 1.5 0.895 1.5 2 z"
           transform="matrix(15.333333,0,0,11.5,414.99999,878.8622)"
           fill="#1890d0"
           id="path14" />
      </g>
    </clipPath>
    <clipPath
       id="clipPath-858293542">
      <g
         transform="translate(0,-1004.3622)"
         id="g17">
        <path
           d="m -24 13 c 0 1.105 -0.672 2 -1.5 2 -0.828 0 -1.5 -0.895 -1.5 -2 0 -1.105 0.672 -2 1.5 -2 0.828 0 1.5 0.895 1.5 2 z"
           transform="matrix(15.333333,0,0,11.5,414.99999,878.8622)"
           fill="#1890d0"
           id="path19" />
      </g>
    </clipPath>
    <linearGradient
       inkscape:collect="always"
       xlink:href="#linearGradient3764"
       id="linearGradient3330"
       gradientUnits="userSpaceOnUse"
       gradientTransform="matrix(0,-1,1,0,-1.5e-6,47.999998)"
       x1="1"
       x2="47" />
    <linearGradient
       inkscape:collect="always"
       xlink:href="#linearGradient3764"
       id="linearGradient3333"
       gradientUnits="userSpaceOnUse"
       gradientTransform="matrix(0,-1,1,0,-1.5e-6,47.999998)"
       x1="1"
       x2="47" />
    <linearGradient
       inkscape:collect="always"
       xlink:href="#linearGradient3764"
       id="linearGradient3340"
       gradientUnits="userSpaceOnUse"
       gradientTransform="matrix(0,-1,1,0,-1.5e-6,47.999998)"
       x1="1"
       x2="47" />
    <linearGradient
       inkscape:collect="always"
       xlink:href="#linearGradient3764"
       id="linearGradient3343"
       gradientUnits="userSpaceOnUse"
       gradientTransform="matrix(0,-1,1,0,-1.5e-6,47.999998)"
       x1="1"
       x2="47" />
    <linearGradient
       inkscape:collect="always"
       xlink:href="#linearGradient3764"
       id="linearGradient3360"
       gradientUnits="userSpaceOnUse"
       gradientTransform="matrix(0,-1,1,0,-1.5e-6,47.999998)"
       x1="1"
       x2="47" />
  </defs>
  <g
     id="g21">
    <path
       d="m 36.31 5 c 5.859 4.062 9.688 10.831 9.688 18.5 c 0 12.426 -10.07 22.5 -22.5 22.5 c -7.669 0 -14.438 -3.828 -18.5 -9.688 c 1.037 1.822 2.306 3.499 3.781 4.969 c 4.085 3.712 9.514 5.969 15.469 5.969 c 12.703 0 23 -10.298 23 -23 c 0 -5.954 -2.256 -11.384 -5.969 -15.469 c -1.469 -1.475 -3.147 -2.744 -4.969 -3.781 z m 4.969 3.781 c 3.854 4.113 6.219 9.637 6.219 15.719 c 0 12.703 -10.297 23 -23 23 c -6.081 0 -11.606 -2.364 -15.719 -6.219 c 4.16 4.144 9.883 6.719 16.219 6.719 c 12.703 0 23 -10.298 23 -23 c 0 -6.335 -2.575 -12.06 -6.719 -16.219 z"
       opacity="0.05"
       id="path23" />
    <path
       d="m 41.28 8.781 c 3.712 4.085 5.969 9.514 5.969 15.469 c 0 12.703 -10.297 23 -23 23 c -5.954 0 -11.384 -2.256 -15.469 -5.969 c 4.113 3.854 9.637 6.219 15.719 6.219 c 12.703 0 23 -10.298 23 -23 c 0 -6.081 -2.364 -11.606 -6.219 -15.719 z"
       opacity="0.1"
       id="path25" />
    <path
       d="m 31.25 2.375 c 8.615 3.154 14.75 11.417 14.75 21.13 c 0 12.426 -10.07 22.5 -22.5 22.5 c -9.708 0 -17.971 -6.135 -21.12 -14.75 a 23 23 0 0 0 44.875 -7 a 23 23 0 0 0 -16 -21.875 z"
       opacity="0.2"
       id="path27" />
  </g>
  <path
     style="fill:url(#linearGradient3343);fill-opacity:1"
     d="M 24 1 L 24 22 C 24.723 21.988 25.391 22.375 25.75 23 L 37.0625 23 C 37.5855 23 38 23.4145 38 23.9375 L 38 24.0625 C 38 24.5825 37.5855 25 37.0625 25 L 25.71875 25 C 25.36275 25.613 24.711 25.996 24 26 L 24 47 C 36.703 47 47 36.703 47 24 C 47 11.297 36.703 1 24 1 z M 24 26 L 24 22 C 23.789 21.996 23.578 22.02775 23.375 22.09375 L 18.5625 17.28125 C 18.3835 17.10225 18.14025 17 17.90625 17 C 17.67225 17 17.46125 17.10125 17.28125 17.28125 C 16.92625 17.63625 16.92625 18.2035 17.28125 18.5625 L 22.09375 23.375 C 22.03075 23.574 22 23.785 22 24 C 22.004 24.485 22.18 24.9495 22.5 25.3125 L 16.5625 36.25 C 16.4335 36.489 16.49175 36.8005 16.71875 36.9375 C 16.94475 37.0735 17.246 36.988 17.375 36.75 L 23.28125 25.875 C 23.51225 25.961 23.754 26.004 24 26 z "
     id="path31" />
  <g
     id="g33" />
  <path
     style="opacity:0.1;fill:#000000;fill-opacity:1;fill-rule:evenodd;stroke:none"
     d="M 24 1 L 24 22 C 24.3615 21.994 24.69775 22.076625 25 22.25 L 25 1.03125 C 24.669144 1.0171284 24.334333 1 24 1 z M 24 22 C 23.789 21.996 23.578 22.02775 23.375 22.09375 L 24 22.71875 L 24 22 z M 17.90625 17 C 17.67225 17 17.46125 17.10125 17.28125 17.28125 C 16.92625 17.63625 16.92625 18.2035 17.28125 18.5625 L 18.28125 19.5625 C 17.92625 19.2035 17.92625 18.63625 18.28125 18.28125 C 18.46125 18.10125 18.67225 18 18.90625 18 C 19.14025 18 19.3835 18.10225 19.5625 18.28125 L 18.5625 17.28125 C 18.3835 17.10225 18.14025 17 17.90625 17 z M 22.09375 23.375 C 22.03075 23.574 22 23.785 22 24 C 22.004 24.485 22.18 24.9495 22.5 25.3125 L 16.5625 36.25 C 16.4335 36.489 16.49175 36.8005 16.71875 36.9375 C 16.94475 37.0735 17.246 36.988 17.375 36.75 L 23.25 25.9375 C 23.094876 25.65057 23.00274 25.332192 23 25 C 23 24.785 23.03075 24.574 23.09375 24.375 L 22.09375 23.375 z M 38 24 L 38 24.0625 C 38 24.5825 37.5855 25 37.0625 25 L 25.71875 25 C 25.54075 25.3065 25.296312 25.545875 25 25.71875 L 25 27 C 25.711 26.996 26.36275 26.613 26.71875 26 L 38.0625 26 C 38.5855 26 39 25.5825 39 25.0625 L 39 24.9375 C 39 24.4145 38.5855 24 38.0625 24 L 38 24 z M 25 27 C 24.754 27.004 24.51225 26.961 24.28125 26.875 L 24 27.40625 L 24 47 C 24.334333 47 24.669144 46.982872 25 46.96875 L 25 27 z "
     id="path45" />
  <path
     style="fill:#2d2d2d;fill-opacity:1;fill-rule:evenodd;stroke:none"
     d="M 24 1 C 11.297 1 1 11.297 1 24 C 1 36.703 11.297 47 24 47 L 24 26 C 23.754 26.004 23.51225 25.961 23.28125 25.875 L 17.375 36.75 C 17.246 36.988 16.94475 37.0735 16.71875 36.9375 C 16.49175 36.8005 16.4335 36.489 16.5625 36.25 L 22.5 25.3125 C 22.18 24.9495 22.004 24.485 22 24 C 22 23.785 22.03075 23.574 22.09375 23.375 L 17.28125 18.5625 C 16.92625 18.2035 16.92625 17.63625 17.28125 17.28125 C 17.46125 17.10125 17.67225 17 17.90625 17 C 18.14025 17 18.3835 17.10225 18.5625 17.28125 L 23.375 22.09375 C 23.578 22.02775 23.789 21.996 24 22 L 24 1 z M 24 22 L 24 26 C 24.711 25.996 25.36275 25.613 25.71875 25 L 37.0625 25 C 37.5855 25 38 24.5825 38 24.0625 L 38 23.9375 C 38 23.4145 37.5855 23 37.0625 23 L 25.75 23 C 25.391 22.375 24.723 21.988 24 22 z "
     id="path53" />
  <g
     id="g55">
    <path
       d="m 40.03 7.531 c 3.712 4.084 5.969 9.514 5.969 15.469 0 12.703 -10.297 23 -23 23 c -5.954 0 -11.384 -2.256 -15.469 -5.969 4.178 4.291 10.01 6.969 16.469 6.969 c 12.703 0 23 -10.298 23 -23 0 -6.462 -2.677 -12.291 -6.969 -16.469 z"
       opacity="0.1"
       id="path57" />
  </g>
</svg>

<svg xmlns="http://www.w3.org/2000/svg" viewBox="0 0 48 48"><defs><clipPath><g transform="translate(0,-1004.3622)"><path d="m -24 13 c 0 1.105 -0.672 2 -1.5 2 -0.828 0 -1.5 -0.895 -1.5 -2 0 -1.105 0.672 -2 1.5 -2 0.828 0 1.5 0.895 1.5 2 z" transform="matrix(15.333333,0,0,11.5,414.99999,878.8622)" fill="#1890d0"/></g></clipPath><clipPath><g transform="translate(0,-1004.3622)"><path d="m -24 13 c 0 1.105 -0.672 2 -1.5 2 -0.828 0 -1.5 -0.895 -1.5 -2 0 -1.105 0.672 -2 1.5 -2 0.828 0 1.5 0.895 1.5 2 z" transform="matrix(15.333333,0,0,11.5,414.99999,878.8622)" fill="#1890d0"/></g></clipPath><linearGradient id="linearGradient3343" gradientUnits="userSpaceOnUse" gradientTransform="matrix(0,-1,1,0,-1.5e-6,47.999998)" x1="1" x2="47"><stop stop-color="#94c341" stop-opacity="1"/><stop offset="1" stop-color="#9dc851" stop-opacity="1"/></linearGradient></defs><g><path d="m 36.31 5 c 5.859 4.062 9.688 10.831 9.688 18.5 c 0 12.426 -10.07 22.5 -22.5 22.5 c -7.669 0 -14.438 -3.828 -18.5 -9.688 c 1.037 1.822 2.306 3.499 3.781 4.969 c 4.085 3.712 9.514 5.969 15.469 5.969 c 12.703 0 23 -10.298 23 -23 c 0 -5.954 -2.256 -11.384 -5.969 -15.469 c -1.469 -1.475 -3.147 -2.744 -4.969 -3.781 z m 4.969 3.781 c 3.854 4.113 6.219 9.637 6.219 15.719 c 0 12.703 -10.297 23 -23 23 c -6.081 0 -11.606 -2.364 -15.719 -6.219 c 4.16 4.144 9.883 6.719 16.219 6.719 c 12.703 0 23 -10.298 23 -23 c 0 -6.335 -2.575 -12.06 -6.719 -16.219 z" opacity="0.05"/><path d="m 41.28 8.781 c 3.712 4.085 5.969 9.514 5.969 15.469 c 0 12.703 -10.297 23 -23 23 c -5.954 0 -11.384 -2.256 -15.469 -5.969 c 4.113 3.854 9.637 6.219 15.719 6.219 c 12.703 0 23 -10.298 23 -23 c 0 -6.081 -2.364 -11.606 -6.219 -15.719 z" opacity="0.1"/><path d="m 31.25 2.375 c 8.615 3.154 14.75 11.417 14.75 21.13 c 0 12.426 -10.07 22.5 -22.5 22.5 c -9.708 0 -17.971 -6.135 -21.12 -14.75 a 23 23 0 0 0 44.875 -7 a 23 23 0 0 0 -16 -21.875 z" opacity="0.2"/></g><path d="m 24 1 l 0 21 c 0.723 -0.012 1.391 0.375 1.75 1 l 11.313 0 c 0.523 0 0.938 0.415 0.938 0.938 l 0 0.125 c 0 0.52 -0.414 0.938 -0.938 0.938 l -11.344 0 c -0.356 0.613 -1.01 0.996 -1.719 1 l 0 21 c 12.703 0 23 -10.297 23 -23 c 0 -12.703 -10.297 -23 -23 -23 z m 0 25 l 0 -4 c -0.211 -0.004 -0.422 0.028 -0.625 0.094 l -4.813 -4.813 c -0.179 -0.179 -0.422 -0.281 -0.656 -0.281 c -0.234 0 -0.445 0.101 -0.625 0.281 c -0.355 0.355 -0.355 0.922 0 1.281 l 4.813 4.813 c -0.063 0.199 -0.094 0.41 -0.094 0.625 c 0.004 0.485 0.18 0.95 0.5 1.313 l -5.938 10.938 c -0.129 0.239 -0.071 0.55 0.156 0.688 c 0.226 0.136 0.527 0.05 0.656 -0.188 l 5.906 -10.875 c 0.231 0.086 0.473 0.129 0.719 0.125 z" fill="url(#linearGradient3343)" fill-opacity="1"/><path d="m 24 1 l 0 21 c 0.361 -0.006 0.698 0.077 1 0.25 l 0 -21.22 c -0.331 -0.014 -0.666 -0.031 -1 -0.031 z m 0 21 c -0.211 -0.004 -0.422 0.028 -0.625 0.094 l 0.625 0.625 l 0 -0.719 z m -6.094 -5 c -0.234 0 -0.445 0.101 -0.625 0.281 c -0.355 0.355 -0.355 0.922 0 1.281 l 1 1 c -0.355 -0.359 -0.355 -0.926 0 -1.281 c 0.18 -0.18 0.391 -0.281 0.625 -0.281 c 0.234 0 0.477 0.102 0.656 0.281 l -1 -1 c -0.179 -0.179 -0.422 -0.281 -0.656 -0.281 z m 4.188 6.375 c -0.063 0.199 -0.094 0.41 -0.094 0.625 c 0.004 0.485 0.18 0.95 0.5 1.313 l -5.938 10.938 c -0.129 0.239 -0.071 0.55 0.156 0.688 c 0.226 0.136 0.527 0.05 0.656 -0.188 l 5.875 -10.813 c -0.155 -0.287 -0.247 -0.605 -0.25 -0.938 c 0 -0.215 0.031 -0.426 0.094 -0.625 l -1 -1 z m 15.906 0.625 l 0 0.063 c 0 0.52 -0.414 0.938 -0.938 0.938 l -11.344 0 c -0.178 0.306 -0.422 0.546 -0.719 0.719 l 0 1.281 c 0.711 -0.004 1.363 -0.387 1.719 -1 l 11.344 0 c 0.523 0 0.938 -0.418 0.938 -0.938 l 0 -0.125 c 0 -0.523 -0.414 -0.938 -0.938 -0.938 l -0.063 0 z m -13 3 c -0.246 0.004 -0.488 -0.039 -0.719 -0.125 l -0.281 0.531 l 0 19.594 c 0.334 0 0.669 -0.017 1 -0.031 l 0 -19.969 z" opacity="0.1" fill="#000" fill-rule="evenodd" stroke="none" fill-opacity="1"/><path d="m 24 1 c -12.703 0 -23 10.297 -23 23 c 0 12.703 10.297 23 23 23 l 0 -21 c -0.246 0.004 -0.488 -0.039 -0.719 -0.125 l -5.906 10.875 c -0.129 0.238 -0.43 0.324 -0.656 0.188 c -0.227 -0.137 -0.285 -0.449 -0.156 -0.688 l 5.938 -10.938 c -0.32 -0.363 -0.496 -0.828 -0.5 -1.313 c 0 -0.215 0.031 -0.426 0.094 -0.625 l -4.813 -4.813 c -0.355 -0.359 -0.355 -0.926 0 -1.281 c 0.18 -0.18 0.391 -0.281 0.625 -0.281 c 0.234 0 0.477 0.102 0.656 0.281 l 4.813 4.813 c 0.203 -0.066 0.414 -0.098 0.625 -0.094 l 0 -21 z m 0 21 l 0 4 c 0.711 -0.004 1.363 -0.387 1.719 -1 l 11.344 0 c 0.523 0 0.938 -0.418 0.938 -0.938 l 0 -0.125 c 0 -0.523 -0.414 -0.938 -0.938 -0.938 l -11.313 0 c -0.359 -0.625 -1.027 -1.012 -1.75 -1 z" fill="#2d2d2d" fill-rule="evenodd" stroke="none" fill-opacity="1"/><g><path d="m 40.03 7.531 c 3.712 4.084 5.969 9.514 5.969 15.469 0 12.703 -10.297 23 -23 23 c -5.954 0 -11.384 -2.256 -15.469 -5.969 4.178 4.291 10.01 6.969 16.469 6.969 c 12.703 0 23 -10.298 23 -23 0 -6.462 -2.677 -12.291 -6.969 -16.469 z" opacity="0.1"/></g></svg>
